X:15
T:La Bella
S:Mister Kloff: https://www.youtube.com/watch?v=dgtXa7cex5w
R:Mazurka
C:Julien Cartonnet
Z:robin.beech@mcgill.ca
M:3/4
L:1/8
K:Bb dor
d2 Bd f2 | d2 B2 d2 | c2- cd cB | =AB cA Bc | d2Bd f2 | d2 B2 d2 | cg fe dc |
d2 Bd f2 | d2 B2 d2 | c2- cd cB | =AB cA Bc | e2 fg fe | dc B2 =AB | cA B4 |:n
Af ed cB | Af ed cB | AB cA c2 | d2 c4 | Af ed cB | Af ed cB | AB cd cA | B6 :|
